assets/images/letter-icon.svg

<svg width="17" height="20" viewBox="0 0 17 20" fill="none" xmlns="http://www.w3.org/2000/svg">
<path d="M1.9999 3.9999C1.44762 3.9999 0.999902 4.44762 0.999902 4.9999V14.9999C0.999902 15.5522 1.44762 15.9999 1.9999 15.9999H14.9999C15.5522 15.9999 15.9999 15.5522 15.9999 14.9999V4.9999C15.9999 4.44762 15.5522 3.9999 14.9999 3.9999H1.9999ZM7.8999 11.1749C8.07334 11.3039 8.28374 11.3736 8.4999 11.3736C8.71606 11.3736 8.92647 11.3039 9.0999 11.1749L9.83325 10.6249L14.9999 14.4999V14.9999H1.9999V14.4999L7.16656 10.6249L7.8999 11.1749ZM8.4999 10.3749L1.9999 5.4999V4.9999H14.9999V5.4999L8.4999 10.3749ZM1.9999 6.7499L6.33325 9.9999L1.9999 13.2499V6.7499ZM14.9999 13.2499L10.6666 9.9999L14.9999 6.7499V13.2499Z" fill="#003154"/>
<path fill-rule="evenodd" clip-rule="evenodd" d="M1.9999 4.0999C1.50285 4.0999 1.0999 4.50285 1.0999 4.9999V14.9999C1.0999 15.497 1.50285 15.8999 1.9999 15.8999H14.9999C15.497 15.8999 15.8999 15.497 15.8999 14.9999V4.9999C15.8999 4.50285 15.497 4.0999 14.9999 4.0999H1.9999ZM0.899902 4.9999C0.899902 4.39239 1.39239 3.8999 1.9999 3.8999H14.9999C15.6074 3.8999 16.0999 4.39239 16.0999 4.9999V14.9999C16.0999 15.6074 15.6074 16.0999 14.9999 16.0999H1.9999C1.39239 16.0999 0.899902 15.6074 0.899902 14.9999V4.9999ZM1.8999 4.8999H15.0999V5.5499L8.4999 10.4999L1.8999 5.5499V4.8999ZM2.0999 5.0999V5.4499L8.4999 10.2499L14.8999 5.4499V5.0999H2.0999ZM1.8999 6.5499L6.49991 9.9999L1.8999 13.4499V6.5499ZM15.0999 6.5499V13.4499L10.4999 9.9999L15.0999 6.5499ZM2.0999 6.9499V13.0499L6.16658 9.9999L2.0999 6.9499ZM10.8332 9.9999L14.8999 13.0499V6.9499L10.8332 9.9999ZM7.16656 10.4999L7.95959 11.0947C8.11574 11.2108 8.30531 11.2736 8.4999 11.2736C8.6945 11.2736 8.88391 11.2109 9.04006 11.0948L9.83325 10.4999L15.0999 14.4499V15.0999H1.8999V14.4499L7.16656 10.4999ZM7.16656 10.7499L2.0999 14.5499V14.8999H14.8999V14.5499L9.83325 10.7499L9.1599 11.2549C8.96922 11.3968 8.73757 11.4736 8.4999 11.4736C8.26224 11.4736 8.0309 11.397 7.84021 11.2551L7.16656 10.7499Z" fill="#003154"/>
</svg>

<svg width="17" height="20" fill="none" xmlns="http://www.w3.org/2000/svg"><path d="M2 4a1 1 0 00-1 1v10a1 1 0 001 1h13a1 1 0 001-1V5a1 1 0 00-1-1H2zm5.9 7.175a1.005 1.005 0 001.2 0l.733-.55L15 14.5v.5H2v-.5l5.167-3.875.733.55zm.6-.8L2 5.5V5h13v.5l-6.5 4.875zM2 6.75L6.333 10 2 13.25v-6.5zm13 6.5L10.667 10 15 6.75v6.5z" fill="#003154"/><path fill-rule="evenodd" clip-rule="evenodd" d="M2 4.1a.9.9 0 00-.9.9v10a.9.9 0 00.9.9h13a.9.9 0 00.9-.9V5a.9.9 0 00-.9-.9H2zM.9 5A1.1 1.1 0 012 3.9h13A1.1 1.1 0 0116.1 5v10a1.1 1.1 0 01-1.1 1.1H2A1.1 1.1 0 01.9 15V5zm1-.1h13.2v.65L8.5 10.5 1.9 5.55V4.9zm.2.2v.35l6.4 4.8 6.4-4.8V5.1H2.1zm-.2 1.45L6.5 10l-4.6 3.45v-6.9zm13.2 0v6.9L10.5 10l4.6-3.45zm-13 .4v6.1L6.167 10 2.1 6.95zM10.833 10l4.067 3.05v-6.1L10.833 10zm-3.666.5l.793.595a.906.906 0 001.08 0l.793-.595 5.267 3.95v.65H1.9v-.65l5.267-3.95zm0 .25L2.1 14.55v.35h12.8v-.35l-5.067-3.8-.673.505a1.106 1.106 0 01-1.32 0l-.673-.505z" fill="#003154"/></svg>
